packages/kaspersky-hexa-ui-icons/src/iconsSVGs/24/CheckedInv.svg

<svg width="24" height="24" viewBox="0 0 24 24" fill="none" xmlns="http://www.w3.org/2000/svg">
<path fill-rule="evenodd" clip-rule="evenodd" d="M5 8C5 6.34315 6.34315 5 8 5H16C17.6569 5 19 6.34315 19 8V16C19 17.6569 17.6569 19 16 19H8C6.34315 19 5 17.6569 5 16V8ZM16.1229 10.5722C16.5135 10.1817 16.5135 9.54853 16.1229 9.15801C15.7324 8.76748 15.0992 8.76748 14.7087 9.15801L11.146 12.7207L9.29129 10.8659C8.90077 10.4754 8.2676 10.4754 7.87708 10.8659C7.48655 11.2564 7.48655 11.8896 7.87708 12.2801L10.4389 14.842C10.8295 15.2325 11.4626 15.2325 11.8532 14.842L16.1229 10.5722Z" fill="black"/>
</svg>

<svg xmlns="http://www.w3.org/2000/svg" width="24" height="24" fill="none" viewBox="0 0 24 24"><path fill="#000" fill-rule="evenodd" d="M5 8c0-1.6569 1.3431-3 3-3h8c1.6569 0 3 1.3431 3 3v8c0 1.6569-1.3431 3-3 3H8c-1.6569 0-3-1.3431-3-3zm11.1229 2.5722c.3906-.3905.3906-1.0237 0-1.4142s-1.0237-.3905-1.4142 0l-3.5627 3.5627-1.8547-1.8548c-.3905-.3905-1.0237-.3905-1.4142 0-.3906.3905-.3906 1.0237 0 1.4142l2.5618 2.5619c.3906.3905 1.0237.3905 1.4143 0z"/></svg>
